svg/Pictogram/pictograms-nps-water-kayaking.svg

<svg xmlns="http://www.w3.org/2000/svg" viewBox="0 0 256 256"><path d="m0 0c-.541 0-.981-.44-.981-.981v-7.524c0-.542.44-.983.981-.983h7.526c.541 0 .982.441.982.983v7.524c0 .541-.441.981-.982.981h-7.526" fill="#fff" transform="matrix(25.88473 0 0-25.88473 30.586 5.218)"/><path d="m0 0c.652 0 1.182.529 1.182 1.184v7.523c0 .652-.53 1.182-1.182 1.182h-7.526c-.653 0-1.182-.53-1.182-1.182v-7.523c0-.655.529-1.184 1.182-1.184h7.526" transform="matrix(25.88473 0 0-25.88473 225.4 256)"/><g fill="#fff"><path d="m0 0c-.178 0-.348-.041-.498-.111-.148-.065-.313-.104-.484-.104-.172 0-.336.039-.485.104-.15.07-.32.111-.498.111-.176 0-.346-.041-.498-.111-.146-.065-.31-.104-.482-.104-.172 0-.338.039-.485.104-.15.07-.32.111-.498.111-.177 0-.347-.041-.498-.111-.148-.065-.312-.104-.483-.104-.172 0-.336.039-.485.104-.15.07-.318.111-.496.111-.177 0-.347-.041-.498-.111-.148-.065-.312-.104-.484-.104v-.724c.172 0 .336.039.484.103.151.07.321.111.498.111.178 0 .346-.041.496-.111.125-.055.264-.086.407-.096l-.602-.599c-.191.119-.445.097-.611-.069l-.69-.689c-.191-.191-.191-.502 0-.695.194-.192.504-.192.696 0l.689.689c.156.156.184.391.086.576l.829.828c.057.018.111.032.164.055.151.07.321.111.498.111.178 0 .348-.041.498-.111.147-.064.313-.103.485-.103.172 0 .336.039.482.103.152.07.322.111.498.111.178 0 .348-.041.498-.111.149-.064.313-.103.485-.103.171 0 .336.039.484.103.15.07.32.111.498.111.178 0 .346-.041.498-.111.147-.064.313-.103.484-.103v.724c-.171 0-.337.039-.484.104-.152.07-.32.111-.498.111" transform="matrix(25.88473 0 0-25.88473 204.15 153.63)"/><path d="m0 0h-.21l.422 1.405.871-.322-1.083-1.083m3.207 2.359l.689.69c.194.193.194.504 0 .695-.191.194-.503.194-.695 0l-.689-.689c-.166-.166-.188-.42-.067-.61l-.858-.858-1.703.631c-.045.025-.092.047-.145.062-.371.112-.763-.099-.875-.47l-.523-1.754c-.007-.021-.009-.038-.011-.056h-2.328v-.941c.127 0 .258.029.373.08.189.088.4.134.607.134.207 0 .416-.046.602-.132.123-.055.25-.082.379-.082.13 0 .257.027.374.08.191.088.4.134.607.134.209 0 .414-.044.604-.132.119-.055.25-.082.379-.082.129 0 .256.027.375.08.189.088.4.134.605.134.211 0 .414-.044.604-.132.121-.055.252-.082.379-.082.129 0 .257.027.375.08.189.088.4.134.607.134.035 0 .179-.001.319.083.25.11.344.172.562.306.18.11.329.351-.063.338-.108-.004-3.335 0-3.335 0l.988.987.133-.05c.168-.061.355.025.418.193.043.119.009.248-.073.334l.81.811c.185-.097.42-.072.576.084" transform="matrix(25.88473 0 0-25.88473 129.8 122.96)"/><path d="m0 0l-.09-.191c-.058-.12-.18-.202-.318-.202h-.211c.121-.171.32-.283.545-.283.367 0 .666.297.666.664v.035h-.561c-.013 0-.027-.009-.031-.023" transform="matrix(25.88473 0 0-25.88473 129.63 41.692)"/><path d="m0 0c.072 0 .137.043.166.105l.088.192c.033.072.103.121.185.121h.688c-.09.353-.412.613-.793.613-.451 0-.816-.365-.816-.818 0-.072.007-.145.027-.213h.455" transform="matrix(25.88473 0 0-25.88473 119.06 47.51)"/></g></svg>

<?xml version="1.0" encoding="UTF-8" standalone="no"?>
<!-- Created with Inkscape (http://www.inkscape.org/) -->
<svg
   xmlns:dc="http://purl.org/dc/elements/1.1/"
   xmlns:cc="http://creativecommons.org/ns#"
   xmlns:rdf="http://www.w3.org/1999/02/22-rdf-syntax-ns#"
   xmlns:svg="http://www.w3.org/2000/svg"
   xmlns="http://www.w3.org/2000/svg"
   xmlns:sodipodi="http://sodipodi.sourceforge.net/DTD/sodipodi-0.dtd"
   xmlns:inkscape="http://www.inkscape.org/namespaces/inkscape"
   width="256"
   height="256"
   id="svg5294"
   sodipodi:version="0.32"
   inkscape:version="0.46"
   version="1.0"
   sodipodi:docname="pictograms-nps-water-kayaking-2.svg"
   inkscape:output_extension="org.inkscape.output.svg.inkscape">
  <defs
     id="defs5296">
    <inkscape:perspective
       sodipodi:type="inkscape:persp3d"
       inkscape:vp_x="0 : 526.18109 : 1"
       inkscape:vp_y="0 : 1000 : 0"
       inkscape:vp_z="744.09448 : 526.18109 : 1"
       inkscape:persp3d-origin="372.04724 : 350.78739 : 1"
       id="perspective5302" />
  </defs>
  <sodipodi:namedview
     id="base"
     pagecolor="#ffffff"
     bordercolor="#666666"
     borderopacity="1.0"
     gridtolerance="10000"
     guidetolerance="10"
     objecttolerance="10"
     inkscape:pageopacity="0.0"
     inkscape:pageshadow="2"
     inkscape:zoom="1.4"
     inkscape:cx="124.57192"
     inkscape:cy="112.12174"
     inkscape:document-units="px"
     inkscape:current-layer="layer1"
     showgrid="false"
     inkscape:window-width="747"
     inkscape:window-height="674"
     inkscape:window-x="0"
     inkscape:window-y="309" />
  <metadata
     id="metadata5299">
    <rdf:RDF>
      <cc:Work
         rdf:about="">
        <dc:format>image/svg+xml</dc:format>
        <dc:type
           rdf:resource="http://purl.org/dc/dcmitype/StillImage" />
      </cc:Work>
    </rdf:RDF>
  </metadata>
  <g
     inkscape:label="Layer 1"
     inkscape:groupmode="layer"
     id="layer1">
    <g
       id="g5912"
       transform="matrix(25.884732,0,0,-25.884732,30.585606,5.218362)">
      <path
         d="M 0,0 C -0.541,0 -0.981,-0.44 -0.981,-0.981 L -0.981,-8.505 C -0.981,-9.047 -0.541,-9.488 0,-9.488 L 7.526,-9.488 C 8.067,-9.488 8.508,-9.047 8.508,-8.505 L 8.508,-0.981 C 8.508,-0.44 8.067,0 7.526,0 L 0,0 z"
         style="fill:#ffffff;fill-opacity:1;fill-rule:nonzero;stroke:none"
         id="path5914" />
    </g>
    <g
       id="g5916"
       transform="matrix(25.884732,0,0,-25.884732,225.40425,256)">
      <path
         d="M 0,0 C 0.652,0 1.182,0.529 1.182,1.184 L 1.182,8.707 C 1.182,9.359 0.652,9.889 0,9.889 L -7.526,9.889 C -8.179,9.889 -8.708,9.359 -8.708,8.707 L -8.708,1.184 C -8.708,0.529 -8.179,0 -7.526,0 L 0,0 z"
         style="fill:#000000;fill-opacity:1;fill-rule:nonzero;stroke:none"
         id="path5918" />
    </g>
    <g
       id="g5920"
       transform="matrix(25.884732,0,0,-25.884732,204.14563,153.62588)">
      <path
         d="M 0,0 C -0.178,0 -0.348,-0.041 -0.498,-0.111 C -0.646,-0.176 -0.811,-0.215 -0.982,-0.215 C -1.154,-0.215 -1.318,-0.176 -1.467,-0.111 C -1.617,-0.041 -1.787,0 -1.965,0 C -2.141,0 -2.311,-0.041 -2.463,-0.111 C -2.609,-0.176 -2.773,-0.215 -2.945,-0.215 C -3.117,-0.215 -3.283,-0.176 -3.43,-0.111 C -3.58,-0.041 -3.75,0 -3.928,0 C -4.105,0 -4.275,-0.041 -4.426,-0.111 C -4.574,-0.176 -4.738,-0.215 -4.909,-0.215 C -5.081,-0.215 -5.245,-0.176 -5.394,-0.111 C -5.544,-0.041 -5.712,0 -5.89,0 C -6.067,0 -6.237,-0.041 -6.388,-0.111 C -6.536,-0.176 -6.7,-0.215 -6.872,-0.215 L -6.872,-0.939 C -6.7,-0.939 -6.536,-0.9 -6.388,-0.836 C -6.237,-0.766 -6.067,-0.725 -5.89,-0.725 C -5.712,-0.725 -5.544,-0.766 -5.394,-0.836 C -5.269,-0.891 -5.13,-0.922 -4.987,-0.932 L -5.589,-1.531 C -5.78,-1.412 -6.034,-1.434 -6.2,-1.6 L -6.89,-2.289 C -7.081,-2.48 -7.081,-2.791 -6.89,-2.984 C -6.696,-3.176 -6.386,-3.176 -6.194,-2.984 L -5.505,-2.295 C -5.349,-2.139 -5.321,-1.904 -5.419,-1.719 L -4.59,-0.891 C -4.533,-0.873 -4.479,-0.859 -4.426,-0.836 C -4.275,-0.766 -4.105,-0.725 -3.928,-0.725 C -3.75,-0.725 -3.58,-0.766 -3.43,-0.836 C -3.283,-0.9 -3.117,-0.939 -2.945,-0.939 C -2.773,-0.939 -2.609,-0.9 -2.463,-0.836 C -2.311,-0.766 -2.141,-0.725 -1.965,-0.725 C -1.787,-0.725 -1.617,-0.766 -1.467,-0.836 C -1.318,-0.9 -1.154,-0.939 -0.982,-0.939 C -0.811,-0.939 -0.646,-0.9 -0.498,-0.836 C -0.348,-0.766 -0.178,-0.725 0,-0.725 C 0.178,-0.725 0.346,-0.766 0.498,-0.836 C 0.645,-0.9 0.811,-0.939 0.982,-0.939 L 0.982,-0.215 C 0.811,-0.215 0.645,-0.176 0.498,-0.111 C 0.346,-0.041 0.178,0 0,0"
         style="fill:#ffffff;fill-opacity:1;fill-rule:nonzero;stroke:none"
         id="path5922" />
    </g>
    <g
       id="g5924"
       transform="matrix(25.884732,0,0,-25.884732,129.80448,122.96283)">
      <path
         d="M 0,0 L -0.21,0 L 0.212,1.405 L 1.083,1.083 L 0,0 z M 3.207,2.359 L 3.896,3.049 C 4.09,3.242 4.09,3.553 3.896,3.744 C 3.705,3.938 3.393,3.938 3.201,3.744 L 2.512,3.055 C 2.346,2.889 2.324,2.635 2.445,2.445 L 1.587,1.587 L -0.116,2.218 C -0.161,2.243 -0.208,2.265 -0.261,2.28 C -0.632,2.392 -1.024,2.181 -1.136,1.81 L -1.659,0.056 C -1.666,0.035 -1.668,0.018 -1.67,0 L -3.998,0 L -3.998,-0.941 C -3.871,-0.941 -3.74,-0.912 -3.625,-0.861 C -3.436,-0.773 -3.225,-0.727 -3.018,-0.727 C -2.811,-0.727 -2.602,-0.773 -2.416,-0.859 C -2.293,-0.914 -2.166,-0.941 -2.037,-0.941 C -1.907,-0.941 -1.78,-0.914 -1.663,-0.861 C -1.472,-0.773 -1.263,-0.727 -1.056,-0.727 C -0.847,-0.727 -0.642,-0.771 -0.452,-0.859 C -0.333,-0.914 -0.202,-0.941 -0.073,-0.941 C 0.056,-0.941 0.183,-0.914 0.302,-0.861 C 0.491,-0.773 0.702,-0.727 0.907,-0.727 C 1.118,-0.727 1.321,-0.771 1.511,-0.859 C 1.632,-0.914 1.763,-0.941 1.89,-0.941 C 2.019,-0.941 2.147,-0.914 2.265,-0.861 C 2.454,-0.773 2.665,-0.727 2.872,-0.727 C 2.907,-0.727 3.051,-0.737 3.191,-0.644 C 3.441,-0.534 3.535,-0.472 3.753,-0.338 C 3.933,-0.228 4.082,0.013 3.69,0 C 3.582,-0.004 0.355,0 0.355,0 L 1.343,0.987 L 1.476,0.937 C 1.644,0.876 1.831,0.962 1.894,1.13 C 1.937,1.249 1.903,1.378 1.821,1.464 L 2.631,2.275 C 2.816,2.178 3.051,2.203 3.207,2.359"
         style="fill:#ffffff;fill-opacity:1;fill-rule:nonzero;stroke:none"
         id="path5926" />
    </g>
    <g
       id="g5928"
       transform="matrix(25.884732,0,0,-25.884732,129.62577,41.692434)">
      <path
         d="M 0,0 L -0.09,-0.191 C -0.148,-0.311 -0.27,-0.393 -0.408,-0.393 L -0.619,-0.393 C -0.498,-0.564 -0.299,-0.676 -0.074,-0.676 C 0.293,-0.676 0.592,-0.379 0.592,-0.012 L 0.592,0.023 L 0.031,0.023 C 0.018,0.023 0.004,0.014 0,0"
         style="fill:#ffffff;fill-opacity:1;fill-rule:nonzero;stroke:none"
         id="path5930" />
    </g>
    <g
       id="g5932"
       transform="matrix(25.884732,0,0,-25.884732,119.05962,47.506145)">
      <path
         d="M 0,0 C 0.072,0 0.137,0.043 0.166,0.105 L 0.254,0.297 C 0.287,0.369 0.357,0.418 0.439,0.418 L 1.127,0.418 C 1.037,0.771 0.715,1.031 0.334,1.031 C -0.117,1.031 -0.482,0.666 -0.482,0.213 C -0.482,0.141 -0.475,0.068 -0.455,0 L 0,0 z"
         style="fill:#ffffff;fill-opacity:1;fill-rule:nonzero;stroke:none"
         id="path5934" />
    </g>
  </g>
</svg>
